X: 282
T: Xiao guonian
L: 1/8
M: 2/4
K: C
A A/ G/ F/ G/ A/ c/ [I:setbarnb 1]| 
A/ G/ F/ G/D2 | 
G G/ G/ F/ G/ A/ c/ | 
A/ G/ F/ G/D2 | 
d d g d | 
c e d d | 
A A/ G/ F/ G/ A/ c/ | 
A/ G/ F/ G/D2- | 
D2d2 | 
G2G2 | 
A g/ e/ e d | 
B g/ e/ d c | 
d d A d | 
d EG2 | 
A A G F | 
C4 | 
d2d2 | 
f2d c | 
B3c | 
d2d2 | 
d ff2 | 
A G A G | 
F4 | 
A> G F G | 
G2G2 | 
D2F2 | 
G4 | 
d2d c | 
_B3c | 
d f A G | 
F2F G | 
_B2=B G | 
F G G _B | 
F4- | 
F2z2 |]

@@@ Tune index: 9156
